X: 1
T: String Quartet in D Minor opus 76 no 2 mvt 3
C: Franz Joseph Haydn
%%abc-version 2.0
%%abcx-abcm2ps-target-version 5.9.1 (29 Sep 2008)
%%abc-creator hum2abc beta
%%abcx-conversion-date 2021/02/14 14:38:12
%%abc-copyright Copyright (c) 1994, 2000 Center for Computer Assisted Research in the Humanities
%%abc-edited-by Frances Bennion
%%abcx-initial-encoding-date 1997/04/15
%%gracespace 0 6 6
%%humdrum-veritas 2481602285
%%humdrum-veritas-data 2664069374
%%linebreak <none>
%%barnumbers 0
L: 1/4
M: 3/4
N: Derived from op76n2-03.krn
Q: "Menuetto: Allegro ma non troppo "Witches Minuet""
%%staves [1 2 3 4]
V: 1
V: 2
V: 3 clef=alto
V: 4 clef=bass
K: F
[V:1]z2 d/e/ [I:setbarnb1] |
[V:2]z2 D/E/ |
[V:3]z2 z |
[V:4]z2 z |
[V:1]f f/g/ f/e/ |
[V:2]F F/G/ F/E/ |
[V:3]z z D,/E,/ |
[V:4]z z D,,/E,,/ |
[V:1]d d/e/ f/g/ |
[V:2]D D/E/ F/G/ |
[V:3]F, F,/G,/ F,/E,/ |
[V:4]F,, F,,/G,,/ F,,/E,,/ |
[V:1]a a d' |
[V:2]A A d |
[V:3]D, D,/E,/ F,/G,/ |
[V:4]D,, D,,/E,,/ F,,/G,,/ |
[V:1]^c'/e'/ a ^g |
[V:2]^c/e/ A ^G |
[V:3]A, A, D |
[V:4]A,, A,, D, |
[V:1]a2 f/d/ |
[V:2]A2 F/D/ |
[V:3]^C/E/ A, ^G, |
[V:4]^C,/E,/ A,, ^G,, |
[V:1]^c e a |
[V:2]^C E A |
[V:3]A,2 F,/D,/ |
[V:4]A,,2 F,,/D,,/ |
[V:1]b b g/e/ |
[V:2]B B G/E/ |
[V:3]^C, E, A, |
[V:4]^C,, E,, A,, |
[V:1]^c c z |
[V:2]^C C z |
[V:3]B, B, G,/E,/ |
[V:4]B,, B,, G,,/E,,/ |
[V:1]A A d |
[V:2]A, A, D |
[V:3]^C, C, z |
[V:4]^C,, C,, z |
[V:1]e e/f/ d |
[V:2]E E/F/ D |
[V:3]A, A, D, |
[V:4]A,, A,, D,, |
[V:1]z z d/e/ |
[V:2]z z D/E/ |
[V:3]E, E,/F,/ D, |
[V:4]E,, E,,/F,,/ D,, |
[V:1]f f g |
[V:2]F F G |
[V:3]z z D,/E,/ |
[V:4]z z D,,/E,,/ |
[V:1]a a/b/ g |
[V:2]A A/B/ G |
[V:3]F, F, G, |
[V:4]F,, F,, G,, |
[V:1]f c'/d'/ b/c'/ |
[V:2]F c/d/ B/c/ |
[V:3]A, A,/B,/ G, |
[V:4]A,, A,,/B,,/ G,, |
[V:1]a z c' |
[V:2]A z c |
[V:3]F, C/D/ B,/C/ |
[V:4]F,, C,/D,/ B,,/C,/ |
[V:1]f' f g |
[V:2]f F G |
[V:3]A, z C |
[V:4]A,, z C, |
[V:1]a z b |
[V:2]A z B |
[V:3]F F, G, |
[V:4]F, F,, G,, |
[V:1]^c c d |
[V:2]^C C D |
[V:3]A, z B, |
[V:4]A,, z B,, |
[V:1]e e f |
[V:2]E E F |
[V:3]^C, C, D, |
[V:4]^C,, C,, D,, |
[V:1]^c c d |
[V:2]^C C D |
[V:3]E, E, F, |
[V:4]E,, E,, F,, |
[V:1]e e f |
[V:2]E E F |
[V:3]^C, C, D, |
[V:4]^C,, C,, D,, |
[V:1]z z d/e/ |
[V:2]z z D/E/ |
[V:3]E, E, F, |
[V:4]E,, E,, F,, |
[V:1]f f/g/ f/e/ |
[V:2]F F/G/ F/E/ |
[V:3]z z D,/E,/ |
[V:4]z z D,,/E,,/ |
[V:1]d d/e/ f/g/ |
[V:2]D D/E/ F/G/ |
[V:3]F, F,/G,/ F,/E,/ |
[V:4]F,, F,,/G,,/ F,,/E,,/ |
[V:1]a a d' |
[V:2]A A d |
[V:3]D, D,/E,/ F,/G,/ |
[V:4]D,, D,,/E,,/ F,,/G,,/ |
[V:1]^c'/e'/ a ^g |
[V:2]^c/e/ A ^G |
[V:3]A, A, D |
[V:4]A,, A,, D, |
[V:1]a2 d' |
[V:2]A2 d |
[V:3]^C/E/ A, ^G, |
[V:4]^C,/E,/ A,, ^G,, |
[V:1]^c'/e'/ a b |
[V:2]^c/e/ A B |
[V:3]A,2 D |
[V:4]A,,2 D, |
[V:1]a f g |
[V:2]A F G |
[V:3]^C/E/ A, B, |
[V:4]^C,/E,/ A,, B,, |
[V:1]g/f/ e/d/ ^c |
[V:2]G/F/ E/D/ ^C |
[V:3]A, F, G, |
[V:4]A,, F,, G,, |
[V:1]d d e |
[V:2]D D E |
[V:3]G,/F,/ E,/D,/ ^C, |
[V:4]G,,/F,,/ E,,/D,,/ ^C,, |
[V:1]f f z |
[V:2]F F z |
[V:3]D, D, E, |
[V:4]D,, D,, E,, |
[V:1]A A d |
[V:2]A, A, D |
[V:3]F, F, z |
[V:4]F,, F,, z |
[V:1]e e/f/ d |
[V:2]E E/F/ D |
[V:3]A, A, D, |
[V:4]A,, A,, D,, |
[V:1]z3 |
[V:2]z3 |
[V:3]E, E,/F,/ D, |
[V:4]E,, E,,/F,,/ D,, |
[V:1]a e/f/ d |
[V:2]A E/F/ D |
[V:3]z3 |
[V:4]z3 |
[V:1]z z d/e/ |
[V:2]z z D/E/ |
[V:3]A, E,/F,/ D, |
[V:4]A,, E,,/F,,/ D,, |
[V:1]z z d |
[V:2]z z D |
[V:3]A, E,/F,/ D, |
[V:4]A,, E,,/F,,/ D,, |
[V:1]d d d |
[V:2]D D D |
[V:3]z3 |
[V:4]z3 |
[V:1]d d d |
[V:2]D D A |
[V:3]z z F |
[V:4]z z D |
[V:1]d d d |
[V:2]A A A |
[V:3]F F F |
[V:4]D D D |
[V:1]d d [dD] |
[V:2]A A [A^F] |
[V:3]F F [A,^F] |
[V:4]D D D, |
[V:1][dD] [dD] [dD] |
[V:2][A^F] [AF] [AF] |
[V:3][A,^F] [FA,] [FA,] |
[V:4]D, D, D, |
[V:1][dD] [dD] [Dd] |
[V:2][A^F] [AF] [AF] |
[V:3][^FA,] [A,F] [FA,] |
[V:4]D, D, D,, |
[V:1]^c/d/ e/d/ e/d/ |
[V:2][A^F] [AF] [AF] |
[V:3][A,^F] [A,F] [A,F] |
[V:4]D,, D,, D,, |
[V:1]^c/d/ e/^f/ g/a/ |
[V:2][GA,] [GA,] [A,G] |
[V:3][E^C] [EC] [EC] |
[V:4]D,, D,, D,, |
[V:1]=b/a/ d'/^c'/ b/a/ |
[V:2][A,^F] [A,F] [Fd] |
[V:3][A,^F] [A,F] [A,F] |
[V:4]D,, D,, D,, |
[V:1]g/a/ =b/^c'/ d'/e'/ |
[V:2][E^c] [Ec] [Ec] |
[V:3][GA,] [A,G] [A,G] |
[V:4]D,, D,, D,, |
[V:1]^f'/g'/ a'/a'/ a'/a'/ |
[V:2][^Fd] ^f f |
[V:3][A,^F] D D |
[V:4]D,, D, D, |
[V:1]a'/a'/ a'/a'/ a'/a'/ |
[V:2]e e e |
[V:3]A A A |
[V:4]^C, C, C, |
[V:1]^g'/a'/ =b'/a'/ b'/g'/ |
[V:2]d d d |
[V:3]=B ^G G/B/ |
[V:4]E, E, E, |
[V:1]a' z d' |
[V:2]^c z D |
[V:3]A z2 |
[V:4]A,, z2 |
[V:1]a' z z |
[V:2]^c z E |
[V:3]A z ^C |
[V:4]A,, z A, |
[V:1]z3 |
[V:2]E E E |
[V:3]^C C C |
[V:4]A, A, A, |
[V:1]z z a |
[V:2]E E E |
[V:3]^C C C |
[V:4]A, A, A, |
[V:1]a a a |
[V:2]E E E |
[V:3]^C C C |
[V:4]A, A, A, |
[V:1]a a a/g/ |
[V:2]E E E |
[V:3]^C C C |
[V:4]A, A, A, |
[V:1]f/e/ d/^c/ d/f/ |
[V:2]F F F/D/ |
[V:3]D D D |
[V:4]A, A, A, |
[V:1]e/^c/ A/b/ a/g/ |
[V:2]E E E |
[V:3]^C C C |
[V:4]A, A, A, |
[V:1]f/e/ d/^c/ d/f/ |
[V:2]F F F/D/ |
[V:3]D D D |
[V:4]A, A, A, |
[V:1]e/^c/ A/b/ a/g/ |
[V:2]E E E |
[V:3]^C C C |
[V:4]A, A, A, |
[V:1]f/e/ d/^c/ d/f/ |
[V:2]F F F/D/ |
[V:3]D D D |
[V:4]A, A, A, |
[V:1]a a a |
[V:2]E A A |
[V:3]^C z2 |
[V:4]A, z2 |
[V:1]a a z |
[V:2]A A z |
[V:3]z z A, |
[V:4]z z A,, |
[V:1]z z d |
[V:2]z z D |
[V:3]A, A, z |
[V:4]A,, A,, z |
[V:1]d d d |
[V:2]D D A |
[V:3]z z F |
[V:4]z z D |
[V:1]d d d |
[V:2]A A D |
[V:3]F F z |
[V:4]D D z |
[V:1]d d d |
[V:2]D D B |
[V:3]z z G |
[V:4]z z D |
[V:1]d d d |
[V:2]B B D |
[V:3]G G z |
[V:4]D D z |
[V:1]d d d |
[V:2]D D A |
[V:3]z z F |
[V:4]z z D |
[V:1]d d [dD] |
[V:2]A A [A^F] |
[V:3]F F [A,^F] |
[V:4]D D D, |
[V:1][dD] [dD] [dD] |
[V:2][A^F] [AF] [AF] |
[V:3][^FA,] [A,F] [A,F] |
[V:4]D, D, D, |
[V:1][dD] [dD] [dD] |
[V:2][A^F] [AF] [FA] |
[V:3][^FA,] [A,F] [A,F] |
[V:4]D, D, D,, |
[V:1]^c/d/ e/d/ e/d/ |
[V:2][A^F] [AF] [FA] |
[V:3][^FA,] [A,F] [FA,] |
[V:4]D,, D,, D,, |
[V:1]^c/d/ e/^f/ g/a/ |
[V:2][GA,] [A,G] [GA,] |
[V:3][E^C] [EC] [EC] |
[V:4]D,, D,, D,, |
[V:1]=b/a/ d'/^c'/ b/a/ |
[V:2][A,^F] [FA,] [Fd] |
[V:3][^FA,] [A,F] [FA,] |
[V:4]D,, D,, D,, |
[V:1]g/a/ =b/^c'/ d'/e'/ |
[V:2][^cE] [cE] [Ec] |
[V:3][A,G] [GA,] [GA,] |
[V:4]D,, D,, D,, |
[V:1]^f'/g'/ a'/a'/ a'/a'/ |
[V:2][Dd] ^f a |
[V:3][^FA,] [FA,] [A,F] |
[V:4]D,, D,, D,, |
[V:1]g'/a'/ =b'/b'/ b'/b'/ |
[V:2]d g =b |
[V:3]G D D |
[V:4]G,, G,, G,, |
[V:1]a'/=b'/ ^c''/c''/ c''/c''/ |
[V:2]^c e g |
[V:3]G G E |
[V:4]A,, A,, A,, |
[V:1]d'' z2 |]
[V:2]^f z2 |]
[V:3]^F z2 |]
[V:4]D,, z2 |]

